public/images/icons/edit_presentation/menu/goal.svg

<svg width="102mm" height="100mm" fill-rule="evenodd" stroke-linejoin="round" stroke-width="28.2" preserveAspectRatio="xMidYMid" version="1.2" viewBox="5100 9299 10246 1e4" xmlns="http://www.w3.org/2000/svg">
 <defs class="EmbeddedBulletChars"></defs>
 <g class="Page">
  <g class="Group">
   <g class="com.sun.star.drawing.ClosedBezierShape">
    <g>
     <rect class="BoundingBox" x="5100" y="10974" width="8372" height="8372" fill="none"/>
     <path d="m9286 19345c-2308 0-4186-1878-4186-4185 0-2308 1878-4186 4186-4186 2307 0 4185 1878 4185 4186 0 2307-1878 4185-4185 4185z" fill="#fafafa"/>
    </g>
   </g>
   <g class="com.sun.star.drawing.ClosedBezierShape">
    <g>
     <rect class="BoundingBox" x="5100" y="10974" width="8372" height="8372" fill="none"/>
     <path d="m9286 19345c-2308 0-4186-1878-4186-4185 0-2308 1878-4186 4186-4186 2307 0 4185 1878 4185 4186 0 2307-1878 4185-4185 4185zm0-7743c-1962 0-3558 1596-3558 3558 0 1961 1596 3557 3558 3557 1961 0 3557-1596 3557-3557 0-1962-1596-3558-3557-3558z" fill="#ffa500"/>
    </g>
   </g>
   <g class="com.sun.star.drawing.ClosedBezierShape">
    <g>
     <rect class="BoundingBox" x="6564" y="12438" width="5443" height="5443" fill="none"/>
     <path d="m9286 17880c-1500 0-2721-1220-2721-2720s1221-2721 2721-2721 2720 1221 2720 2721-1220 2720-2720 2720zm0-4813c-1154 0-2093 939-2093 2093s939 2093 2093 2093 2093-939 2093-2093-939-2093-2093-2093z" fill="#ffa500"/>
    </g>
   </g>
   <g class="com.sun.star.drawing.ClosedBezierShape">
    <g>
     <rect class="BoundingBox" x="8030" y="13904" width="2513" height="2514" fill="none"/>
     <path d="m9286 16416c-693 0-1256-564-1256-1256 0-693 563-1256 1256-1256 692 0 1256 563 1256 1256 0 692-564 1256-1256 1256zm0-1884c-346 0-628 282-628 628s282 628 628 628 628-282 628-628-282-628-628-628z" fill="#ffa500"/>
    </g>
   </g>
   <g class="com.sun.star.drawing.ClosedBezierShape">
    <g>
     <rect class="BoundingBox" x="8971" y="11707" width="3769" height="3768" fill="none"/>
     <path d="m9063 15382c-123-123-123-321 0-444l3139-3139c123-123 321-122 444 0 122 123 123 321 0 444l-3139 3139c-61 62-141 92-222 92-80 0-161-30-222-92z" fill="#05852d"/>
    </g>
   </g>
   <g class="com.sun.star.drawing.ClosedBezierShape">
    <g>
     <rect class="BoundingBox" x="12215" y="9299" width="3131" height="3131" fill="none"/>
     <path d="m13575 12229h-1046c-173 0-314-141-314-314v-1045c0-84 33-164 92-222l1256-1256c90-90 225-116 342-68s194 163 194 290v732h732c127 0 241 77 290 194 48 117 22 253-68 342l-1256 1255c-58 59-138 92-222 92z" fill="#05852d"/>
    </g>
   </g>
   <g class="com.sun.star.drawing.ClosedBezierShape">
    <g>
     <rect class="BoundingBox" x="8971" y="11787" width="3338" height="3597" fill="none"/>
     <path d="m12215 11787c-4 4-8 8-13 12l-3139 3139c-123 123-123 322 0 444l3244-3244c-57-57-92-135-92-222v-129z" fill="#05852d"/>
    </g>
   </g>
   <g class="com.sun.star.drawing.ClosedBezierShape">
    <g>
     <rect class="BoundingBox" x="12214" y="9300" width="1886" height="2840" fill="none"/>
     <path d="m13785 9300c-82 0-162 32-223 92l-1255 1256c-59 58-92 138-92 222v917 129c0 87 35 165 92 222l1792-1792v-732c0-127-77-242-194-290-39-16-80-24-120-24z" fill="#05852d"/>
    </g>
   </g>
  </g>
 </g>
</svg>

<?xml version="1.0" encoding="UTF-8"?>
<!DOCTYPE svg PUBLIC "-//W3C//DTD SVG 1.1//EN" "http://www.w3.org/Graphics/SVG/1.1/DTD/svg11.dtd">
<svg version="1.2" width="102.46mm" height="100.47mm" viewBox="5100 9299 10246 10047" preserveAspectRatio="xMidYMid" fill-rule="evenodd" stroke-width="28.222" stroke-linejoin="round" xmlns="http://www.w3.org/2000/svg" xmlns:ooo="http://xml.openoffice.org/svg/export" xmlns:xlink="http://www.w3.org/1999/xlink" xmlns:presentation="http://sun.com/xmlns/staroffice/presentation" xmlns:smil="http://www.w3.org/2001/SMIL20/" xmlns:anim="urn:oasis:names:tc:opendocument:xmlns:animation:1.0" xml:space="preserve">
 <defs class="EmbeddedBulletChars">
  <g id="bullet-char-template-57356" transform="scale(0.00048828125,-0.00048828125)">
   <path d="M 580,1141 L 1163,571 580,0 -4,571 580,1141 Z"/>
  </g>
  <g id="bullet-char-template-57354" transform="scale(0.00048828125,-0.00048828125)">
   <path d="M 8,1128 L 1137,1128 1137,0 8,0 8,1128 Z"/>
  </g>
  <g id="bullet-char-template-10146" transform="scale(0.00048828125,-0.00048828125)">
   <path d="M 174,0 L 602,739 174,1481 1456,739 174,0 Z M 1358,739 L 309,1346 659,739 1358,739 Z"/>
  </g>
  <g id="bullet-char-template-10132" transform="scale(0.00048828125,-0.00048828125)">
   <path d="M 2015,739 L 1276,0 717,0 1260,543 174,543 174,936 1260,936 717,1481 1274,1481 2015,739 Z"/>
  </g>
  <g id="bullet-char-template-10007" transform="scale(0.00048828125,-0.00048828125)">
   <path d="M 0,-2 C -7,14 -16,27 -25,37 L 356,567 C 262,823 215,952 215,954 215,979 228,992 255,992 264,992 276,990 289,987 310,991 331,999 354,1012 L 381,999 492,748 772,1049 836,1024 860,1049 C 881,1039 901,1025 922,1006 886,937 835,863 770,784 769,783 710,716 594,584 L 774,223 C 774,196 753,168 711,139 L 727,119 C 717,90 699,76 672,76 641,76 570,178 457,381 L 164,-76 C 142,-110 111,-127 72,-127 30,-127 9,-110 8,-76 1,-67 -2,-52 -2,-32 -2,-23 -1,-13 0,-2 Z"/>
  </g>
  <g id="bullet-char-template-10004" transform="scale(0.00048828125,-0.00048828125)">
   <path d="M 285,-33 C 182,-33 111,30 74,156 52,228 41,333 41,471 41,549 55,616 82,672 116,743 169,778 240,778 293,778 328,747 346,684 L 369,508 C 377,444 397,411 428,410 L 1163,1116 C 1174,1127 1196,1133 1229,1133 1271,1133 1292,1118 1292,1087 L 1292,965 C 1292,929 1282,901 1262,881 L 442,47 C 390,-6 338,-33 285,-33 Z"/>
  </g>
  <g id="bullet-char-template-9679" transform="scale(0.00048828125,-0.00048828125)">
   <path d="M 813,0 C 632,0 489,54 383,161 276,268 223,411 223,592 223,773 276,916 383,1023 489,1130 632,1184 813,1184 992,1184 1136,1130 1245,1023 1353,916 1407,772 1407,592 1407,412 1353,268 1245,161 1136,54 992,0 813,0 Z"/>
  </g>
  <g id="bullet-char-template-8226" transform="scale(0.00048828125,-0.00048828125)">
   <path d="M 346,457 C 273,457 209,483 155,535 101,586 74,649 74,723 74,796 101,859 155,911 209,963 273,989 346,989 419,989 480,963 531,910 582,859 608,796 608,723 608,648 583,586 532,535 482,483 420,457 346,457 Z"/>
  </g>
  <g id="bullet-char-template-8211" transform="scale(0.00048828125,-0.00048828125)">
   <path d="M -4,459 L 1135,459 1135,606 -4,606 -4,459 Z"/>
  </g>
  <g id="bullet-char-template-61548" transform="scale(0.00048828125,-0.00048828125)">
   <path d="M 173,740 C 173,903 231,1043 346,1159 462,1274 601,1332 765,1332 928,1332 1067,1274 1183,1159 1299,1043 1357,903 1357,740 1357,577 1299,437 1183,322 1067,206 928,148 765,148 601,148 462,206 346,322 231,437 173,577 173,740 Z"/>
  </g>
 </defs>
 <g class="Page">
  <g class="Group">
   <g class="com.sun.star.drawing.ClosedBezierShape">
    <g id="id3">
     <rect class="BoundingBox" stroke="none" fill="none" x="5100" y="10974" width="8372" height="8372"/>
     <path fill="rgb(250,250,250)" stroke="none" d="M 9286,19345 C 6978,19345 5100,17467 5100,15160 5100,12852 6978,10974 9286,10974 11593,10974 13471,12852 13471,15160 13471,17467 11593,19345 9286,19345 Z"/>
    </g>
   </g>
   <g class="com.sun.star.drawing.ClosedBezierShape">
    <g id="id4">
     <rect class="BoundingBox" stroke="none" fill="none" x="5100" y="10974" width="8372" height="8372"/>
     <path fill="rgb(255,165,0)" stroke="none" d="M 9286,19345 C 6978,19345 5100,17467 5100,15160 5100,12852 6978,10974 9286,10974 11593,10974 13471,12852 13471,15160 13471,17467 11593,19345 9286,19345 Z M 9286,11602 C 7324,11602 5728,13198 5728,15160 5728,17121 7324,18717 9286,18717 11247,18717 12843,17121 12843,15160 12843,13198 11247,11602 9286,11602 Z"/>
    </g>
   </g>
   <g class="com.sun.star.drawing.ClosedBezierShape">
    <g id="id5">
     <rect class="BoundingBox" stroke="none" fill="none" x="6564" y="12438" width="5443" height="5443"/>
     <path fill="rgb(255,165,0)" stroke="none" d="M 9286,17880 C 7786,17880 6565,16660 6565,15160 6565,13660 7786,12439 9286,12439 10786,12439 12006,13660 12006,15160 12006,16660 10786,17880 9286,17880 Z M 9286,13067 C 8132,13067 7193,14006 7193,15160 7193,16314 8132,17253 9286,17253 10440,17253 11379,16314 11379,15160 11379,14006 10440,13067 9286,13067 Z"/>
    </g>
   </g>
   <g class="com.sun.star.drawing.ClosedBezierShape">
    <g id="id6">
     <rect class="BoundingBox" stroke="none" fill="none" x="8030" y="13904" width="2513" height="2514"/>
     <path fill="rgb(255,165,0)" stroke="none" d="M 9286,16416 C 8593,16416 8030,15852 8030,15160 8030,14467 8593,13904 9286,13904 9978,13904 10542,14467 10542,15160 10542,15852 9978,16416 9286,16416 Z M 9286,14532 C 8940,14532 8658,14814 8658,15160 8658,15506 8940,15788 9286,15788 9632,15788 9914,15506 9914,15160 9914,14814 9632,14532 9286,14532 Z"/>
    </g>
   </g>
   <g class="com.sun.star.drawing.ClosedBezierShape">
    <g id="id7">
     <rect class="BoundingBox" stroke="none" fill="none" x="5100" y="10974" width="4187" height="8372"/>
     <path fill="rgb(230,152,8)" stroke="none" d="M 9286,10974 C 6978,10974 5100,12852 5100,15160 5100,17467 6978,19345 9286,19345 L 9286,18717 C 7324,18717 5728,17121 5728,15160 5728,13198 7324,11602 9286,11602 L 9286,10974 Z"/>
    </g>
   </g>
   <g class="com.sun.star.drawing.ClosedBezierShape">
    <g id="id8">
     <rect class="BoundingBox" stroke="none" fill="none" x="6565" y="12438" width="2722" height="5443"/>
     <path fill="rgb(230,152,8)" stroke="none" d="M 9286,12439 C 7786,12439 6565,13660 6565,15160 6565,16660 7786,17880 9286,17880 L 9286,17253 C 8132,17253 7193,16314 7193,15160 7193,14006 8132,13067 9286,13067 L 9286,12439 Z"/>
    </g>
   </g>
   <g class="com.sun.star.drawing.ClosedBezierShape">
    <g id="id9">
     <rect class="BoundingBox" stroke="none" fill="none" x="8658" y="14531" width="629" height="1257"/>
     <path fill="rgb(218,218,218)" stroke="none" d="M 9286,14531 C 8940,14531 8658,14813 8658,15159 8658,15505 8940,15787 9286,15787 L 9286,14531 Z"/>
    </g>
   </g>
   <g class="com.sun.star.drawing.ClosedBezierShape">
    <g id="id10">
     <rect class="BoundingBox" stroke="none" fill="none" x="8030" y="13904" width="1257" height="2514"/>
     <path fill="rgb(230,152,8)" stroke="none" d="M 9286,13904 C 8593,13904 8030,14467 8030,15160 8030,15852 8593,16416 9286,16416 L 9286,15788 C 8940,15788 8658,15506 8658,15160 8658,14814 8940,14532 9286,14532 L 9286,13904 Z"/>
    </g>
   </g>
   <g class="com.sun.star.drawing.ClosedBezierShape">
    <g id="id11">
     <rect class="BoundingBox" stroke="none" fill="none" x="7192" y="13067" width="2095" height="4187"/>
     <path fill="rgb(255,255,215)" stroke="none" d="M 9286,13067 C 8132,13067 7193,14006 7193,15160 7193,16314 8132,17253 9286,17253 L 9286,16416 C 8593,16416 8030,15852 8030,15160 8030,14467 8593,13904 9286,13904 L 9286,13067 Z"/>
    </g>
   </g>
   <g class="com.sun.star.drawing.ClosedBezierShape">
    <g id="id12">
     <rect class="BoundingBox" stroke="none" fill="none" x="5728" y="11602" width="3559" height="7116"/>
     <path fill="rgb(255,255,215)" stroke="none" d="M 9286,11602 C 7324,11602 5728,13198 5728,15160 5728,17121 7324,18717 9286,18717 L 9286,17880 C 7786,17880 6565,16659 6565,15160 6565,13660 7786,12439 9286,12439 L 9286,11602 Z"/>
    </g>
   </g>
   <g class="com.sun.star.drawing.ClosedBezierShape">
    <g id="id13">
     <rect class="BoundingBox" stroke="none" fill="none" x="8971" y="11707" width="3769" height="3768"/>
     <path fill="rgb(0,169,51)" stroke="none" d="M 9063,15382 C 8940,15259 8940,15061 9063,14938 L 12202,11799 C 12325,11676 12523,11677 12646,11799 12768,11922 12769,12120 12646,12243 L 9507,15382 C 9446,15444 9366,15474 9285,15474 9205,15474 9124,15444 9063,15382 Z"/>
    </g>
   </g>
   <g class="com.sun.star.drawing.ClosedBezierShape">
    <g id="id14">
     <rect class="BoundingBox" stroke="none" fill="none" x="12215" y="9299" width="3131" height="3131"/>
     <path fill="rgb(175,208,149)" stroke="none" d="M 13775,12429 L 12729,12429 C 12556,12429 12415,12288 12415,12115 L 12415,11070 C 12415,10986 12448,10906 12507,10848 L 13763,9592 C 13853,9502 13988,9476 14105,9524 14222,9572 14299,9687 14299,9814 L 14299,10546 15031,10546 C 15158,10546 15272,10623 15321,10740 15369,10857 15343,10993 15253,11082 L 13997,12337 C 13939,12396 13859,12429 13775,12429 Z"/>
     <path fill="rgb(0,169,51)" stroke="none" d="M 13575,12229 L 12529,12229 C 12356,12229 12215,12088 12215,11915 L 12215,10870 C 12215,10786 12248,10706 12307,10648 L 13563,9392 C 13653,9302 13788,9276 13905,9324 14022,9372 14099,9487 14099,9614 L 14099,10346 14831,10346 C 14958,10346 15072,10423 15121,10540 15169,10657 15143,10793 15053,10882 L 13797,12137 C 13739,12196 13659,12229 13575,12229 Z"/>
    </g>
   </g>
   <g class="com.sun.star.drawing.ClosedBezierShape">
    <g id="id15">
     <rect class="BoundingBox" stroke="none" fill="none" x="8971" y="11787" width="3338" height="3597"/>
     <path fill="rgb(5,133,45)" stroke="none" d="M 12215,11787 C 12211,11791 12207,11795 12202,11799 L 9063,14938 C 8940,15061 8940,15260 9063,15382 L 12307,12138 C 12250,12081 12215,12003 12215,11916 L 12215,11787 Z"/>
    </g>
   </g>
   <g class="com.sun.star.drawing.ClosedBezierShape">
    <g id="id16">
     <rect class="BoundingBox" stroke="none" fill="none" x="12214" y="9300" width="1886" height="2840"/>
     <path fill="rgb(5,133,45)" stroke="none" d="M 13785,9300 C 13703,9300 13623,9332 13562,9392 L 12307,10648 C 12248,10706 12215,10786 12215,10870 L 12215,11787 12215,11916 C 12215,12003 12250,12081 12307,12138 L 14099,10346 14099,9614 C 14099,9487 14022,9372 13905,9324 13866,9308 13825,9300 13785,9300 Z"/>
    </g>
   </g>
  </g>
 </g>
</svg>
